X: 139
T: Johnson Boys
B: canberra pickers and fiddlers
B: old time tunes update
B: tunes
M:4/4
L:1/8
Q: 1/4=100
K:D
V:1 
 z4 D4| D2 F2 A3 A| A2 F2 E D3| DD FF AA AA| BB AF E4| DD FF A A3|\
 A2 FF E2 D2| D2 D2 F2 F2| DD DD F4| D2 D2 F2 F2| DD B,B, A,4|
% abcbook-tune_id 67a7d9ec0dc577727bda415d
% abcbook-tune_composer_id 
% abcbook-link-0 https://www.youtube.com/watch?v=Xr1mLchs80w
% abcbook-link-title-0 The Johnson Boys
% abcbook-boost 0
% abcbook-difficulty 0
% abcbook-tags old time tunes
% abcbook-tablature 
% abcbook-transpose 
% abcbook-tuning ADAE
% abcbook-lastupdated 1739173060902
% abcbook-src-url 
% abcbook-soundfonts 
% abcbook-repeats 1
% Titles One title
% Transcriptions Only 1 transcription
% Mode major
% Key D
% Time_signature 4/4
% Has_accompaniment_chords No chords

